X:198
M:6/8
L:1/8
K:Gmin
|:A|Bd(f f)dB|fdB fdB|ce(g g)ec|gec gec|Bd(f f)dB|bag fdB|(c/d/e)c (A/B/c)A|BGG G2:|

